src/main/resources/img/expui/action/ExecutionInfo_dark.svg

<svg width="16" height="16" version="1.1" viewBox="0 0 16 16"  xmlns="http://www.w3.org/2000/svg"><path d="m3.4844 1.8027c-0.51562 0.0090225-0.98438 0.4246-0.98438 1.002v10.391c0 0.7698 0.83333 1.2521 1.5 0.86719l3.0137-1.7402a5.5 5.5 0 0 1 5.4863-5.3223 5.5 5.5 0 0 1 0.27734 0.0058594l-8.7773-5.0684c-0.16667-0.096225-0.34375-0.13777-0.51562-0.13477z" color="#000000" fill="#253627"/><path d="m3.4844 1c-0.77051 0.022339-1.4844 0.6773-1.4844 1.5645v10.871c0 1.1829 1.2708 1.9528 2.25 1.3613l2.7949-1.6875a5.5 5.5 0 0 1-0.044922-0.60938 5.5 5.5 0 0 1 0.042969-0.59961l-3.293 1.9883c-0.35418 0.21393-0.75-0.025283-0.75-0.45312v-10.871c0-0.42785 0.39583-0.66705 0.75-0.45312l8.1641 4.9316a5.5 5.5 0 0 1 0.58594-0.042969 5.5 5.5 0 0 1 1.248 0.14453c-0.1204-0.19913-0.28451-0.37493-0.49805-0.50391l-9-5.4375c-0.24479-0.14786-0.50879-0.21057-0.76562-0.20312z" color="#000000" fill="#57965c" stroke-width="1.0228"/><path d="m12.5 9c-1.933 0-3.5 1.567-3.5 3.5s1.567 3.5 3.5 3.5 3.5-1.567 3.5-3.5-1.567-3.5-3.5-3.5zm-0.5 1h1v1h-1zm0 2h1v3h-1z" fill="#3fb5e0" fill-opacity=".70196"/></svg>

<svg width="16" height="16" xmlns="http://www.w3.org/2000/svg"><path d="M3.484 1.803A1.002 1.002 0 0 0 2.5 2.805v10.39a1 1 0 0 0 1.5.868l3.014-1.74A5.5 5.5 0 0 1 12.5 7a5.5 5.5 0 0 1 .277.006L4 1.938a.99.99 0 0 0-.516-.135z" color="#000" fill="#253627"/><path d="M3.484 1A1.559 1.559 0 0 0 2 2.565v10.87c0 1.183 1.27 1.953 2.25 1.362l2.795-1.688A5.5 5.5 0 0 1 7 12.5a5.5 5.5 0 0 1 .043-.599L3.75 13.89c-.354.214-.75-.026-.75-.454V2.565c0-.428.396-.668.75-.454l8.164 4.932A5.5 5.5 0 0 1 12.5 7a5.5 5.5 0 0 1 1.248.145 1.47 1.47 0 0 0-.498-.504l-9-5.438A1.393 1.393 0 0 0 3.484 1z" color="#000" fill="#57965c"/><path d="M12.5 9a3.5 3.5 0 1 0 0 7 3.5 3.5 0 0 0 0-7zm-.5 1h1v1h-1zm0 2h1v3h-1z" fill="#3fb5e0" fill-opacity=".702"/></svg>
